; generated by PrusaSlicer 2.8.0+win64 on 2024-07-25 at 05:52:27 UTC

; 

; external perimeters extrusion width = 0.42mm
; perimeters extrusion width = 0.44mm
; infill extrusion width = 0.44mm
; solid infill extrusion width = 0.44mm
; top infill extrusion width = 0.40mm
; support material extrusion width = 0.36mm
; first layer extrusion width = 0.42mm

M201 X500 Y500 Z100 E5000 ; sets maximum accelerations, mm/sec^2
M203 X500 Y500 Z10 E60 ; sets maximum feedrates, mm / sec
M204 S500 T1000 ; sets acceleration (S) and retract acceleration (R), mm/sec^2
M205 X8.00 Y8.00 Z0.40 E5.00 ; sets the jerk limits, mm/sec
M205 S0 T0 ; sets the minimum extruding and travel feed rate, mm/sec

; printing object Steering Mechanism.stl id:0 copy 0
; stop printing object Steering Mechanism.stl id:0 copy 0

;TYPE:Custom
G90 ; use absolute coordinates
M83 ; extruder relative mode
M104 S150 ; set temporary nozzle temp to prevent oozing during homing
M140 S60 ; set final bed temp
G4 S30 ; allow partial nozzle warmup
G28 ; home all axis
G1 Z50 F240
G1 X2.0 Y10 F3000
M104 S210 ; set final nozzle temp
M190 S60 ; wait for bed temp to stabilize
M109 S210 ; wait for nozzle temp to stabilize
G1 Z0.28 F240
G92 E0
G1 X2.0 Y140 E10 F1500 ; prime the nozzle
G1 X2.3 Y140 F5000
G92 E0
G1 X2.3 Y10 E10 F1200 ; prime the nozzle
G92 E0
G21 ; set units to millimeters
G90 ; use absolute coordinates
M83 ; use relative distances for extrusion
; Filament gcode
M107
;LAYER_CHANGE
;Z:0.2
;HEIGHT:0.2
G1 E-5 F3600
G1 Z.2 F9000
G1 X104.102 Y104.239
G1 Z.2
G1 E5 F2400
M204 S500
;TYPE:Skirt/Brim
;WIDTH:0.42
G1 F1200
G1 X105.306 Y103.073 E.05255
G1 X107.115 Y102.58 E.05879
G1 X112.285 Y102.58 E.1621
G1 X113.504 Y102.795 E.03881
G1 X129.299 Y108.543 E.52701
G1 X130.265 Y109.015 E.03371
G1 X131.332 Y109.871 E.04289
G1 X131.817 Y110.444 E.02354
G1 X132.296 Y111.222 E.02865
G1 X132.545 Y111.789 E.01942
G1 X132.793 Y112.669 E.02867
G1 X132.896 Y113.746 E.03392
G1 X132.865 Y118.645 E.15361
G1 X132.763 Y119.678 E.03255
G1 X132.456 Y120.709 E.03373
G1 X131.882 Y121.77 E.03782
G1 X131.187 Y122.591 E.03373
G1 X130.201 Y123.352 E.03905
G1 X128.99 Y123.9 E.04168
G1 X113.242 Y128.289 E.51259
G1 X112.285 Y128.42 E.03029
G1 X107.115 Y128.42 E.1621
G1 X105.485 Y128.025 E.05259
G1 X104.102 Y126.761 E.05875
G1 X99.067 Y118.804 E.29524
G1 X98.609 Y117.939 E.03069
G1 X98.274 Y116.931 E.0333
G1 X98.107 Y115.627 E.04122
G1 X98.187 Y114.499 E.03546
G1 X98.45 Y113.471 E.03327
G1 X99.014 Y112.283 E.04123
G1 X104.069 Y104.29 E.29653
G1 X104.069 Y104.29 F9000
G1 X104.388 Y104.492
G1 F1200
G1 X104.42 Y104.441 E.00189
G1 X105.574 Y103.355 E.04969
G1 X107.115 Y102.957 E.0499
G1 X112.285 Y102.957 E.1621
G1 X113.375 Y103.15 E.03471
G1 X129.161 Y108.894 E.52671
G1 X130.072 Y109.339 E.03179
G1 X131.065 Y110.138 E.03996
G1 X131.51 Y110.664 E.0216
G1 X131.958 Y111.388 E.0267
G1 X132.424 Y112.746 E.04502
G1 X132.518 Y113.743 E.0314
G1 X132.488 Y118.643 E.15364
G1 X132.394 Y119.601 E.03018
G1 X132.105 Y120.572 E.03176
G1 X131.575 Y121.551 E.03491
G1 X130.92 Y122.324 E.03177
G1 X130.041 Y123.008 E.03492
G1 X128.882 Y123.538 E.03996
G1 X113.141 Y127.926 E.51237
G1 X112.285 Y128.043 E.02709
G1 X107.115 Y128.043 E.1621
G1 X105.58 Y127.649 E.04969
G1 X104.42 Y126.559 E.04991
G1 X99.386 Y118.603 E.2952
G1 X98.958 Y117.794 E.0287
G1 X98.64 Y116.838 E.03159
G1 X98.484 Y115.614 E.03869
G1 X98.558 Y114.566 E.03294
G1 X98.808 Y113.59 E.03159
G1 X99.386 Y112.397 E.04156
G1 X104.356 Y104.542 E.29145
G1 E-3.5 F3600
;WIPE_START
G1 F7200
G1 X104.388 Y104.492 E-.0282
G1 X104.42 Y104.441 E-.0286
G1 X105.574 Y103.355 E-.75271
G1 X106.981 Y102.992 E-.69049
;WIPE_END
; printing object Steering Mechanism.stl id:0 copy 0
G1 X104.342 Y113.677 F9000
G1 E5 F2400
;TYPE:External perimeter
;WIDTH:0.475666
G1 F1200
G1 X104.537 Y113.685 E.00702
G1 X104.841 Y113.804 E.01175
;WIDTH:0.447833
G1 X105.144 Y113.924 E.01097
;WIDTH:0.419999
G1 X105.454 Y114.144 E.01192
G1 X105.689 Y114.396 E.0108
G1 X105.872 Y114.687 E.01078
G1 X105.996 Y115.007 E.01076
G1 X106.058 Y115.5 E.01558
G1 X106.053 Y115.698 E.00621
G1 X105.928 Y116.189 E.01589
G1 X105.768 Y116.493 E.01077
G1 X105.552 Y116.762 E.01082
G1 X105.29 Y116.984 E.01077
;WIDTH:0.447608
G1 X104.999 Y117.132 E.01099
;WIDTH:0.475216
G1 X104.708 Y117.28 E.01174
G1 X104.322 Y117.329 E.01399
;WIDTH:0.466774
G1 X103.872 Y117.286 E.01593
G1 X103.358 Y117.093 E.01935
;WIDTH:0.466114
G1 X102.967 Y116.795 E.0173
G1 X102.638 Y116.356 E.0193
;WIDTH:0.462862
G1 X102.503 Y116.03 E.01232
;WIDTH:0.466796
G1 X102.429 Y115.508 E.01858
G1 X102.494 Y115.003 E.01795
G1 X102.723 Y114.507 E.01926
G1 X103.056 Y114.116 E.0181
;WIDTH:0.470529
G1 X103.489 Y113.847 E.01812
G1 X103.843 Y113.718 E.0134
;WIDTH:0.462072
G1 X104.188 Y113.671 E.01214
;WIDTH:0.475666
G1 X104.282 Y113.675 E.00339
G1 E-3.5 F3600
;WIPE_START
G1 F7200
G1 X104.342 Y113.677 E-.02852
G1 X104.537 Y113.685 E-.0927
G1 X104.841 Y113.804 E-.15507
G1 X105.144 Y113.924 E-.1548
G1 X105.454 Y114.144 E-.18056
G1 X105.689 Y114.396 E-.16367
G1 X105.872 Y114.687 E-.16329
G1 X105.996 Y115.007 E-.16301
G1 X106.058 Y115.5 E-.23602
G1 X106.053 Y115.698 E-.09408
G1 X106.018 Y115.837 E-.06828
;WIPE_END
G1 X107.887 Y113.691 F9000
G1 E5 F2400
;TYPE:Perimeter
;WIDTH:0.419999
G1 F1200
G1 X107.99 Y113.602 E.00427
G1 X108.128 Y113.342 E.00923
G1 X108.179 Y113.036 E.00973
G1 X108.179 Y107.21 E.18267
G1 X111.221 Y107.21 E.09538
G1 X111.221 Y108.731 E.04769
G1 X111.221 Y123.79 E.47216
G1 X108.179 Y123.79 E.09538
G1 X108.179 Y117.964 E.18267
G1 X108.128 Y117.658 E.00973
G1 X107.99 Y117.398 E.00923
G1 X107.802 Y117.21 E.00834
G1 X107.605 Y117.096 E.00714
G1 X107.238 Y117.021 E.01174
G1 X106.314 Y117.019 E.02897
G1 X106.599 Y116.535 E.01761
G1 X106.786 Y115.876 E.02148
G1 X106.812 Y115.346 E.01664
G1 X106.737 Y114.865 E.01526
G1 X106.572 Y114.407 E.01526
G1 X106.327 Y113.985 E.0153
G1 X107.373 Y113.969 E.0328
G1 X107.69 Y113.862 E.01049
G1 X107.842 Y113.73 E.00631
G1 X107.842 Y113.73 F9000
G1 X107.626 Y113.419
G1 F1200
G1 X107.771 Y113.22 E.00772
G1 X107.802 Y113.036 E.00585
G1 X107.802 Y106.833 E.19449
G1 X111.598 Y106.833 E.11902
G1 X111.598 Y108.731 E.05951
G1 X111.598 Y124.167 E.48398
G1 X107.802 Y124.167 E.11902
G1 X107.802 Y117.964 E.19449
G1 X107.771 Y117.78 E.00585
G1 X107.689 Y117.624 E.00553
G1 X107.509 Y117.468 E.00747
G1 X107.237 Y117.398 E.00881
G1 X105.334 Y117.394 E.05967
G1 X105.479 Y117.311 E.00524
G1 X105.799 Y117.047 E.01301
G1 X106.064 Y116.726 E.01305
G1 X106.264 Y116.362 E.01302
G1 X106.419 Y115.787 E.01867
G1 X106.435 Y115.5 E.00901
G1 X106.367 Y114.936 E.01781
G1 X106.222 Y114.547 E.01302
G1 X106.006 Y114.192 E.01303
G1 X105.727 Y113.884 E.01303
G1 X105.344 Y113.606 E.01484
G1 X107.318 Y113.596 E.06189
G1 X107.576 Y113.489 E.00876
G1 X107.591 Y113.467 E.00083
G1 X107.591 Y113.467 F9000
G1 X107.367 Y113.151
;TYPE:External perimeter
G1 F1200
G1 X107.425 Y113.036 E.00404
G1 X107.425 Y106.456 E.20631
G1 X111.975 Y106.456 E.14266
G1 X111.975 Y108.731 E.07133
G1 X111.975 Y124.544 E.4958
G1 X107.425 Y124.544 E.14266
G1 X107.425 Y117.964 E.20631
G1 X107.349 Y117.813 E.0053
G1 X107.237 Y117.775 E.00371
G1 X105.5 Y117.772 E.05446
;WIDTH:0.453271
G1 X105.1 Y117.754 E.01366
;WIDTH:0.486543
G1 X104.7 Y117.737 E.01477
G1 X104.08 Y117.743 E.02287
;WIDTH:0.466796
G1 X103.548 Y117.635 E.01913
;WIDTH:0.465251
G1 X103.058 Y117.404 E.01902
;WIDTH:0.466114
G1 X102.663 Y117.091 E.01773
;WIDTH:0.466792
G1 X102.351 Y116.697 E.01771
G1 X102.113 Y116.186 E.01987
;WIDTH:0.462922
G1 X102.02 Y115.749 E.0156
;WIDTH:0.462513
G1 X102.028 Y115.245 E.01759
;WIDTH:0.466417
G1 X102.145 Y114.717 E.01904
;WIDTH:0.466806
G1 X102.375 Y114.265 E.01788
G1 X102.769 Y113.808 E.02127
;WIDTH:0.463394
G1 X103.187 Y113.522 E.01771
;WIDTH:0.462532
G1 X103.691 Y113.325 E.01888
;WIDTH:0.462072
G1 X104.198 Y113.252 E.01785
G1 X104.987 Y113.229 E.02751
;WIDTH:0.419999
G1 X107.167 Y113.225 E.06835
G1 X107.33 Y113.191 E.00522
G1 E-3.5 F3600
;WIPE_START
G1 F7200
G1 X107.367 Y113.151 E-.02588
G1 X107.425 Y113.036 E-.06118
G1 X107.425 Y110.061 E-1.41294
;WIPE_END
G1 X110.337 Y107.331 F9000
G1 E5 F2400
;TYPE:Solid infill
;WIDTH:0.420334
G1 F1200
G1 X110.931 Y107.924 E.02634
G1 X110.931 Y108.458 E.01676
G1 X109.973 Y107.5 E.04252
G1 X109.44 Y107.5 E.01673
G1 X110.931 Y108.992 E.06619
G1 X110.931 Y109.525 E.01673
G1 X108.906 Y107.5 E.08987
G1 X108.469 Y107.5 E.01371
G1 X108.469 Y107.597 E.00304
G1 X110.931 Y110.059 E.10927
G1 X110.931 Y110.593 E.01676
G1 X108.469 Y108.131 E.10927
G1 X108.469 Y108.665 E.01676
G1 X110.931 Y111.127 E.10927
G1 X110.931 Y111.66 E.01673
G1 X108.469 Y109.199 E.10924
G1 X108.469 Y109.732 E.01673
G1 X110.931 Y112.194 E.10927
G1 X110.931 Y112.728 E.01676
G1 X108.469 Y110.266 E.10927
G1 X108.469 Y110.8 E.01676
G1 X110.931 Y113.262 E.10927
G1 X110.931 Y113.795 E.01673
G1 X108.469 Y111.334 E.10924
G1 X108.469 Y111.867 E.01673
G1 X110.931 Y114.329 E.10927
G1 X110.931 Y114.863 E.01676
G1 X108.469 Y112.401 E.10927
G1 X108.469 Y112.935 E.01676
G1 X110.931 Y115.396 E.10924
G1 X110.931 Y115.93 E.01676
G1 X108.41 Y113.409 E.11188
G1 X108.23 Y113.764 E.01249
G1 X110.931 Y116.464 E.11985
G1 X110.931 Y116.998 E.01676
G1 X107.964 Y114.031 E.13168
G1 X107.829 Y114.118 E.00504
G1 X107.61 Y114.211 E.00747
G1 X110.931 Y117.531 E.14737
G1 X110.931 Y118.065 E.01676
G1 X107.128 Y114.262 E.16878
G1 X106.816 Y114.268 E.00979
G1 X106.973 Y114.641 E.0127
G1 X110.931 Y118.599 E.17566
G1 X110.931 Y119.133 E.01676
G1 X107.099 Y115.301 E.17007
G1 X107.103 Y115.659 E.01124
G1 X107.084 Y115.819 E.00506
G1 X110.931 Y119.666 E.17073
G1 X110.931 Y120.2 E.01676
G1 X108.426 Y117.695 E.11117
G1 X108.404 Y117.564 E.00417
G1 X108.224 Y117.224 E.01207
G1 X107.977 Y116.977 E.01096
G1 X107.721 Y116.83 E.00926
G1 X107.495 Y116.764 E.00739
G1 X106.991 Y116.261 E.02235
G1 X106.859 Y116.663 E.01328
G1 X107.097 Y116.9 E.01054
G1 X107.097 Y116.9 F9000
G1 X108.299 Y118.103
G1 F1200
G1 X110.931 Y120.734 E.11679
G1 X110.931 Y121.268 E.01676
G1 X108.469 Y118.806 E.10927
G1 X108.469 Y119.34 E.01676
G1 X110.931 Y121.801 E.10924
G1 X110.931 Y122.335 E.01676
G1 X108.469 Y119.874 E.10924
G1 X108.469 Y120.407 E.01673
G1 X110.931 Y122.869 E.10927
G1 X110.931 Y123.403 E.01676
G1 X108.469 Y120.941 E.10927
G1 X108.469 Y121.475 E.01676
G1 X110.494 Y123.5 E.08987
G1 X109.96 Y123.5 E.01676
G1 X108.469 Y122.009 E.06617
G1 X108.469 Y122.542 E.01673
G1 X109.426 Y123.5 E.04249
G1 X108.893 Y123.5 E.01673
G1 X108.299 Y122.906 E.02636
G1 E-3.5 F3600
;WIPE_START
G1 F7200
G1 X108.893 Y123.5 E-.39902
G1 X109.426 Y123.5 E-.25318
G1 X108.469 Y122.542 E-.6432
G1 X108.469 Y122.111 E-.2046
;WIPE_END
G1 X126.543 Y114.036 F9000
G1 E5 F2400
;TYPE:Perimeter
;WIDTH:0.419999
G1 F1200
G1 X126.473 Y113.815 E.00727
G1 X126.497 Y113.527 E.00906
G1 X126.658 Y113.175 E.01214
G1 X126.937 Y112.934 E.01156
G1 X127.277 Y112.833 E.01112
G1 X127.67 Y112.882 E.01242
G1 X127.937 Y113.046 E.00982
G1 X128.143 Y113.283 E.00985
G1 X128.237 Y113.556 E.00905
G1 X128.258 Y113.724 E.00531
G1 X128.205 Y114.031 E.00977
G1 X128.037 Y114.317 E.0104
G1 X127.701 Y114.547 E.01277
G1 X127.384 Y114.621 E.01021
G1 X127.003 Y114.547 E.01217
G1 X126.733 Y114.352 E.01044
G1 X126.567 Y114.114 E.0091
G1 X126.561 Y114.094 E.00065
G1 X126.561 Y114.094 F9000
G1 X126.228 Y114.257
G1 F1200
G1 X126.127 Y114.02 E.00808
G1 X126.095 Y113.636 E.01208
G1 X126.197 Y113.212 E.01367
G1 X126.358 Y112.941 E.00988
G1 X126.589 Y112.71 E.01024
G1 X126.859 Y112.556 E.00975
G1 X127.248 Y112.457 E.01259
G1 X127.688 Y112.49 E.01383
G1 X127.955 Y112.597 E.00902
G1 X128.31 Y112.868 E.014
G1 X128.533 Y113.211 E.01283
G1 X128.612 Y113.509 E.00967
G1 X128.638 Y113.724 E.00679
G1 X128.562 Y114.153 E.01366
G1 X128.379 Y114.492 E.01208
G1 X128.061 Y114.79 E.01366
G1 X127.768 Y114.934 E.01024
G1 X127.486 Y114.99 E.00901
G1 X127.04 Y114.958 E.01402
G1 X126.676 Y114.798 E.01247
G1 X126.302 Y114.431 E.01643
G1 X126.251 Y114.312 E.00406
G1 X126.251 Y114.312 F9000
G1 X125.911 Y114.478
;TYPE:External perimeter
G1 F1200
G1 X125.889 Y114.445 E.00124
G1 X125.732 Y113.996 E.01491
G1 X125.719 Y113.605 E.01227
G1 X125.849 Y113.06 E.01757
G1 X126.058 Y112.708 E.01284
G1 X126.35 Y112.416 E.01295
G1 X126.827 Y112.158 E.017
G1 X127.218 Y112.081 E.01249
G1 X127.774 Y112.121 E.01748
G1 X128.134 Y112.265 E.01216
G1 X128.584 Y112.606 E.0177
G1 X128.88 Y113.059 E.01697
G1 X128.986 Y113.462 E.01307
G1 X129.018 Y113.724 E.00828
G1 X128.993 Y113.927 E.00641
G1 X128.88 Y114.389 E.01491
G1 X128.676 Y114.724 E.0123
G1 X128.269 Y115.109 E.01757
G1 X127.898 Y115.29 E.01294
G1 X127.517 Y115.366 E.01218
G1 X126.954 Y115.327 E.01769
G1 X126.594 Y115.183 E.01216
G1 X126.144 Y114.842 E.0177
G1 X125.943 Y114.529 E.01166
G1 E-3.5 F3600
;WIPE_START
G1 F7200
G1 X125.911 Y114.478 E-.0286
G1 X125.889 Y114.445 E-.01884
G1 X125.732 Y113.996 E-.22594
G1 X125.719 Y113.605 E-.18583
G1 X125.849 Y113.06 E-.26614
G1 X126.058 Y112.708 E-.19445
G1 X126.35 Y112.416 E-.19615
G1 X126.827 Y112.158 E-.25759
G1 X127.088 Y112.107 E-.12646
;WIPE_END
G1 X127.444 Y112.963 F9000
G1 E5 F2400
;TYPE:Solid infill
;WIDTH:0.439578
G1 F1200
G1 X127.843 Y113.362 E.01861
G1 X127.921 Y113.484 E.00478
G1 X127.966 Y113.724 E.00805
G1 X127.944 Y113.897 E.00575
G1 X127.907 Y113.986 E.00318
G1 X127.104 Y113.184 E.03743
G1 X127.009 Y113.234 E.00354
G1 X126.889 Y113.354 E.0056
G1 X126.824 Y113.464 E.00421
G1 X127.622 Y114.262 E.03722
G1 X127.54 Y114.302 E.00301
G1 X127.385 Y114.328 E.00518
G1 X127.12 Y114.28 E.00888
G1 X126.977 Y114.179 E.00577
G1 X126.598 Y113.8 E.01768
G1 E-3.5 F3600
;WIPE_START
G1 F7200
G1 X126.977 Y114.179 E-.25459
G1 X127.12 Y114.28 E-.08316
G1 X127.385 Y114.328 E-.12792
G1 X127.54 Y114.302 E-.07465
G1 X127.622 Y114.262 E-.04334
G1 X126.824 Y113.464 E-.53606
G1 X126.889 Y113.354 E-.06069
G1 X127.009 Y113.234 E-.08061
G1 X127.104 Y113.184 E-.05099
G1 X127.384 Y113.464 E-.18799
;WIPE_END
G1 X127.233 Y117.75 F9000
G1 E5 F2400
;TYPE:Perimeter
;WIDTH:0.419999
G1 F1200
G1 X127.389 Y117.735 E.00491
G1 X127.778 Y117.844 E.01267
G1 X127.995 Y118.015 E.00866
G1 X128.188 Y118.35 E.01212
G1 X128.228 Y118.68 E.01042
G1 X128.163 Y118.948 E.00865
G1 X128.012 Y119.195 E.00908
G1 X127.775 Y119.402 E.00987
G1 X127.408 Y119.515 E.01204
G1 X127.027 Y119.464 E.01205
G1 X126.743 Y119.297 E.01033
G1 X126.513 Y118.987 E.0121
G1 X126.449 Y118.542 E.0141
G1 X126.529 Y118.231 E.01007
G1 X126.794 Y117.917 E.01288
G1 X127.079 Y117.764 E.01014
G1 X127.173 Y117.755 E.00296
G1 X127.173 Y117.755 F9000
G1 X127.096 Y117.385
G1 F1200
G1 X127.332 Y117.348 E.00749
G1 X127.787 Y117.442 E.01457
G1 X128.118 Y117.616 E.01172
G1 X128.396 Y117.915 E.0128
G1 X128.572 Y118.327 E.01405
G1 X128.603 Y118.711 E.01208
G1 X128.498 Y119.146 E.01403
G1 X128.19 Y119.569 E.01641
G1 X127.857 Y119.787 E.01248
G1 X127.346 Y119.899 E.0164
G1 X126.905 Y119.821 E.01404
G1 X126.567 Y119.638 E.01205
G1 X126.255 Y119.302 E.01438
G1 X126.14 Y119.062 E.00834
G1 X126.069 Y118.509 E.01748
G1 X126.217 Y118.015 E.01617
G1 X126.561 Y117.615 E.01654
G1 X126.942 Y117.41 E.01357
G1 X127.037 Y117.395 E.00302
G1 X127.037 Y117.395 F9000
G1 X126.959 Y117.026
;TYPE:External perimeter
G1 F1200
G1 X127.197 Y116.98 E.0076
G1 X127.74 Y117.019 E.01707
G1 X128.125 Y117.169 E.01296
G1 X128.552 Y117.502 E.01698
G1 X128.806 Y117.896 E.0147
G1 X128.967 Y118.351 E.01513
G1 X128.979 Y118.742 E.01227
G1 X128.967 Y118.892 E.00472
G1 X128.785 Y119.408 E.01716
G1 X128.452 Y119.843 E.01718
G1 X128.134 Y120.066 E.01218
G1 X127.603 Y120.256 E.01768
G1 X127.134 Y120.252 E.01471
G1 X126.669 Y120.139 E.015
G1 X126.336 Y119.936 E.01223
G1 X125.941 Y119.515 E.0181
G1 X125.73 Y119.026 E.0167
G1 X125.688 Y118.476 E.0173
G1 X125.789 Y118.082 E.01275
G1 X125.951 Y117.716 E.01255
G1 X126.327 Y117.312 E.0173
G1 X126.804 Y117.056 E.01697
G1 X126.9 Y117.037 E.00307
G1 X126.9 Y117.037 F9000
G1 X127.416 Y117.86
;TYPE:Solid infill
;WIDTH:0.440252
G1 F1200
G1 X127.827 Y118.271 E.0192
G1 X127.912 Y118.446 E.00643
G1 X127.941 Y118.627 E.00606
G1 X127.878 Y118.884 E.00874
G1 X127.085 Y118.091 E.03705
G1 X126.974 Y118.15 E.00415
G1 X126.812 Y118.324 E.00785
G1 X126.8 Y118.368 E.00151
